X: 11557
T: Edge Of Waiting, The
R: reel
M: 4/4
K: Edorian
B4e4|B4BAG2|A4BAG2|B2F2E4|B4BAG2|A4BAG2|B2F2E4:|
e4gf de|B2deB2GA|F2f4gf|de Bd AB GA|F4GF AB|F2ABF4|de gf e4|
M:3/4
e2gf de|[M:4/4]B2deB2GA|F2f4gf|de Bd AB GA|F4GF AB|F2ABF4|de gf e4-|e4||

